docs/assets/img/logos/gran-melia.svg

<?xml version="1.0" encoding="UTF-8" standalone="no" ?>
<!DOCTYPE svg PUBLIC "-//W3C//DTD SVG 1.1//EN" "http://www.w3.org/Graphics/SVG/1.1/DTD/svg11.dtd">
<svg xmlns="http://www.w3.org/2000/svg" xmlns:xlink="http://www.w3.org/1999/xlink" version="1.1" width="1080" height="400" viewBox="0 0 1080 400" xml:space="preserve">
<desc>Created with Fabric.js 4.2.0</desc>
<defs>
</defs>
<rect x="0" y="0" width="100%" height="100%" fill="transparent"></rect>
<g transform="matrix(1 0 0 1 540 200)" id="79eccc84-8038-4f03-b2bc-70d597cbf956"  >
<rect style="stroke: none; stroke-width: 1; stroke-dasharray: none; stroke-linecap: butt; stroke-dashoffset: 0; stroke-linejoin: miter; stroke-miterlimit: 4; fill: rgb(255,255,255); fill-rule: nonzero; opacity: 1;" vector-effect="non-scaling-stroke"  x="-540" y="-200" rx="0" ry="0" width="1080" height="400" />
</g>
<g transform="matrix(Infinity NaN NaN Infinity 0 0)" id="41fbb16c-2b2f-4311-b288-a12d0a068301"  >
</g>
<g transform="matrix(1.73 0 0 1.73 540 200)"  >
<g style="" vector-effect="non-scaling-stroke"   >
		<g transform="matrix(1 0 0 1 0 22)"  >
<path style="stroke: none; stroke-width: 1; stroke-dasharray: none; stroke-linecap: butt; stroke-dashoffset: 0; stroke-linejoin: miter; stroke-miterlimit: 4; fill: rgb(29,28,27); fill-rule: nonzero; opacity: 1;" vector-effect="non-scaling-stroke"  transform=" translate(-314.25, -331.35)" d="M 303.3 395.7 L 299.7 391.3 L 297.9 392.6 C 295 394.90000000000003 292.5 396.40000000000003 289 396.3 C 284 396.1 279.8 392.5 279.7 387.3 C 279.59999999999997 383.40000000000003 282 380.3 285.59999999999997 377.90000000000003 L 288.09999999999997 376.3 L 287.4 375.3 C 285.79999999999995 373.2 284.79999999999995 371.7 284.79999999999995 369.1 C 284.79999999999995 365.3 287.79999999999995 362.3 291.79999999999995 362.3 C 295.9 362.3 298.79999999999995 365.2 298.99999999999994 368.90000000000003 C 299.09999999999997 371.70000000000005 297.3999999999999 373.6 295.09999999999997 375.50000000000006 L 293.2 376.90000000000003 L 300 385.8 L 303.8 381.6 L 306.3 383.8 L 302.3 388.6 L 307.8 395.8 L 303.3 395.8 z M 290.1 378.8 L 287.40000000000003 380.6 C 284.90000000000003 382.3 283.20000000000005 385 283.3 387.1 C 283.5 390 285.1 392.1 287.90000000000003 392.90000000000003 C 289.70000000000005 393.40000000000003 292.50000000000006 392.6 294.6 390.90000000000003 L 297.6 388.50000000000006 L 290.1 378.8 L 290.1 378.8 z M 291.9 365.4 C 290 365.4 288.59999999999997 367 288.5 369 C 288.4 370.2 288.8 371 289.6 372 L 291.20000000000005 374.3 L 293.50000000000006 372.6 C 295.00000000000006 371.5 295.90000000000003 370.20000000000005 295.70000000000005 368.40000000000003 C 295.3 366.3 293.7 365.3 291.9 365.4 z M 81.9 396.4 C 72.5 396.29999999999995 64.9 388.7 64.80000000000001 379.29999999999995 C 64.80000000000001 369.9 72.50000000000001 362.19999999999993 81.9 362.19999999999993 C 91.3 362.19999999999993 99 369.9 99 379.3 C 98.9 388.8 91.3 396.4 81.9 396.4 L 81.9 396.4 z M 81.5 365.8 C 74 365.9 68 372.1 68 379.5 C 68 386.9 74.2 393 81.7 392.9 C 89.3 392.79999999999995 95.3 386.7 95.3 379.09999999999997 C 95.3 379.09999999999997 95.3 379.09999999999997 95.3 379.09999999999997 C 95.2 371.7 89.2 365.7 81.7 365.7 C 81.7 365.8 81.6 365.8 81.5 365.8 z M 42.5 395.7 L 42.5 379.7 L 25.8 379.7 L 25.8 395.7 L 22 395.7 L 22 362.8 L 25.6 362.8 L 25.6 376.3 L 42.400000000000006 376.3 L 42.400000000000006 362.8 L 46.2 362.8 L 46.2 395.7 L 42.5 395.7 L 42.5 395.7 z M 227.6 396.3 C 222.79999999999998 396.3 219 393.3 217.7 388.7 L 217.5 387.7 L 220.8 386.7 L 221.20000000000002 387.8 C 222.3 390.8 224.4 392.8 227.4 392.8 C 230.9 392.8 234.1 390 234.1 386.5 C 234.1 384 232.9 382.1 230.7 381 L 225.5 378.6 C 221.9 376.90000000000003 219.2 374.5 219.2 370.5 C 219.2 365.8 223.39999999999998 362.2 228.2 362.1 C 231.79999999999998 362 234.29999999999998 363.70000000000005 236.39999999999998 366.70000000000005 L 236.79999999999998 367.20000000000005 L 233.89999999999998 369.00000000000006 L 233.09999999999997 367.90000000000003 C 231.89999999999998 366.20000000000005 230.29999999999995 365.3 228.09999999999997 365.50000000000006 C 225.29999999999995 365.6000000000001 222.69999999999996 367.70000000000005 222.69999999999996 370.40000000000003 C 222.79999999999995 372.70000000000005 224.29999999999995 374.1 226.39999999999995 375.1 L 231.89999999999995 377.6 C 235.49999999999994 379.20000000000005 237.59999999999994 381.8 237.79999999999995 385.70000000000005 C 237.89999999999995 391.30000000000007 233.49999999999994 396.1 227.79999999999995 396.20000000000005 C 227.8 396.3 227.7 396.3 227.6 396.3 L 227.6 396.3 z M 187.4 395.7 L 187.4 362.8 L 191.1 362.8 L 191.1 392.2 L 200 392.2 L 200 395.59999999999997 C 200 395.7 187.4 395.7 187.4 395.7 z M 477.8 396.4 C 468.40000000000003 396.29999999999995 460.8 388.7 460.8 379.29999999999995 C 460.8 369.9 468.5 362.19999999999993 477.90000000000003 362.19999999999993 C 487.3 362.19999999999993 495.00000000000006 369.8999999999999 495.00000000000006 379.29999999999995 C 494.9 388.8 487.2 396.4 477.8 396.4 z M 477.5 365.8 C 470 365.90000000000003 464 372 464.1 379.5 C 464.20000000000005 387 470.3 393 477.8 392.9 C 485.3 392.9 491.40000000000003 386.7 491.40000000000003 379.2 C 491.40000000000003 379.2 491.40000000000003 379.09999999999997 491.40000000000003 379.09999999999997 C 491.3 371.7 485.3 365.7 477.8 365.7 C 477.7 365.8 477.6 365.8 477.5 365.8 z M 431.9 396.3 C 427.09999999999997 396.3 423.29999999999995 393.3 422 388.7 L 421.8 387.7 L 425.1 386.7 L 425.5 387.8 C 426.5 390.8 428.6 392.8 431.7 392.8 C 435.3 392.8 438.4 390 438.4 386.5 C 438.4 384 437.2 382.1 435 381 L 429.8 378.6 C 426.2 376.90000000000003 423.5 374.5 423.5 370.5 C 423.5 365.8 427.7 362.2 432.5 362.1 C 436.1 362 438.6 363.70000000000005 440.7 366.70000000000005 L 441.09999999999997 367.20000000000005 L 438.2 369.00000000000006 L 437.4 367.90000000000003 C 436.09999999999997 366.20000000000005 434.5 365.3 432.4 365.50000000000006 C 429.59999999999997 365.6000000000001 427 367.70000000000005 427 370.40000000000003 C 427.1 372.70000000000005 428.6 374.1 430.7 375.1 L 436.2 377.6 C 439.8 379.20000000000005 441.9 381.8 442.09999999999997 385.70000000000005 C 442.2 391.30000000000007 437.79999999999995 396.1 432.09999999999997 396.20000000000005 C 432.2 396.3 432.1 396.3 431.9 396.3 L 431.9 396.3 z M 391.3 366.3 L 391.3 376 L 404.1 376 L 404.1 379.2 L 391.1 379.2 L 391.1 392.2 L 404.40000000000003 392.2 L 404.40000000000003 395.59999999999997 L 387.40000000000003 395.59999999999997 L 387.40000000000003 362.7 L 404.50000000000006 362.7 L 404.50000000000006 366.09999999999997 L 391.3 366.09999999999997 L 391.3 366.3 z M 594.2 396.3 C 589.4000000000001 396.3 585.5 393.3 584.3000000000001 388.7 L 584.1 387.7 L 587.4 386.7 L 587.8 387.8 C 588.9 390.8 590.9 392.8 594 392.8 C 597.6 392.8 600.7 390 600.7 386.5 C 600.7 384 599.5 382.1 597.3000000000001 381 L 592.1 378.6 C 588.5 376.90000000000003 585.9 374.5 585.9 370.5 C 585.8 365.8 590 362.2 594.8 362.1 C 598.4 362 600.9 363.70000000000005 603 366.70000000000005 L 603.4 367.20000000000005 L 600.5 369.00000000000006 L 599.7 367.90000000000003 C 598.6 366.20000000000005 596.7 365.3 594.7 365.50000000000006 C 591.9000000000001 365.6000000000001 589.3000000000001 367.70000000000005 589.4000000000001 370.40000000000003 C 589.5000000000001 372.70000000000005 591.0000000000001 374.1 593.1000000000001 375.1 L 598.6000000000001 377.6 C 602.2000000000002 379.20000000000005 604.3000000000002 381.8 604.5000000000001 385.70000000000005 C 604.6000000000001 391.30000000000007 600.2000000000002 396.1 594.5000000000001 396.20000000000005 C 594.4 396.3 594.3 396.3 594.2 396.3 z M 557.9 366.3 L 557.9 395.7 L 554.1999999999999 395.7 L 554.1999999999999 366.3 L 546.4 366.3 L 546.4 362.90000000000003 L 566 362.90000000000003 L 566 366.3 L 557.9 366.3 L 557.9 366.3 z M 527.9 395.7 L 517.9 381.2 L 516.8 381.2 L 516.8 395.7 L 513.1999999999999 395.7 L 513.1999999999999 362.8 L 519.4 362.8 C 525.1 362.8 530.1999999999999 365.2 530.1 372 C 529.9 377.8 526.4 380.5 521.8000000000001 380.9 L 532.2 395.7 C 532.3 395.7 527.9 395.7 527.9 395.7 z M 519.8 366.3 L 517 366.3 L 517 378.1 L 519.3 378.1 C 522.9 378.1 526.5 376.1 526.5 372 C 526.5 367.3 523.3 366.3 519.8 366.3 z M 364 395.7 L 354 381.2 L 352.9 381.2 L 352.9 395.7 L 349.29999999999995 395.7 L 349.29999999999995 362.8 L 355.59999999999997 362.8 C 361.29999999999995 362.8 366.4 365.2 366.29999999999995 372 C 366.09999999999997 377.8 362.59999999999997 380.5 357.99999999999994 380.9 L 368.3999999999999 395.7 C 368.4 395.7 364 395.7 364 395.7 z M 356 366.3 L 353.1 366.3 L 353.1 378.1 L 355.40000000000003 378.1 C 359.00000000000006 378.1 362.6 376.1 362.6 372 C 362.6 367.3 359.5 366.3 356 366.3 z M 155.9 366.3 L 155.9 376 L 168.70000000000002 376 L 168.70000000000002 379.2 L 155.8 379.2 L 155.8 392.2 L 169.10000000000002 392.2 L 169.10000000000002 395.59999999999997 L 152.10000000000002 395.59999999999997 L 152.10000000000002 362.7 L 169.20000000000002 362.7 L 169.20000000000002 366.09999999999997 C 169.2 366.3 155.9 366.3 155.9 366.3 z M 124.8 366.3 L 124.8 395.7 L 121.1 395.7 L 121.1 366.3 L 113.3 366.3 L 113.3 362.90000000000003 L 132.7 362.90000000000003 L 132.7 366.3 L 124.8 366.3 L 124.8 366.3 z M 47.4 336.2 C 29.299999999999997 336.5 14.5 321.09999999999997 14.199999999999996 302.9 C 13.999999999999996 283.9 29.299999999999997 268.29999999999995 48.3 268.09999999999997 C 48.5 268.09999999999997 48.699999999999996 268.09999999999997 48.9 268.09999999999997 C 60.2 268.29999999999995 68 271.9 75.2 280.59999999999997 L 68.7 286.4 C 63.900000000000006 280.09999999999997 56.5 276.4 48.6 276.4 C 33.7 276 22.700000000000003 288.9 22.700000000000003 303.29999999999995 C 22.700000000000003 316.79999999999995 33 327.59999999999997 47.7 327.99999999999994 C 58.6 328.29999999999995 68.7 320.69999999999993 69 309.49999999999994 L 53.6 309.49999999999994 L 53.6 301.49999999999994 L 78.6 301.49999999999994 L 78.6 305.19999999999993 C 78.7 322.2 66.6 335.8 47.4 336.2 z M 604.5 334.7 L 596.6 317.7 L 568 317.7 L 560.4 334.7 L 551 334.7 L 581.8 266.29999999999995 L 614.3 334.69999999999993 L 604.5 334.69999999999993 L 604.5 334.7 z M 581.7 286.7 L 571.2 310.4 L 593 310.4 C 593 310.4 581.7 286.7 581.7 286.7 z M 526.9 334.7 L 535.9 334.7 L 535.9 268.9 L 526.9 268.9 L 526.9 334.7 z M 478.4 334.7 L 478.4 268.9 L 487.29999999999995 268.9 L 487.29999999999995 326 L 507.29999999999995 326 L 507.29999999999995 334.7 L 478.4 334.7 L 478.4 334.7 z M 427.5 334.7 L 427.3 268.9 L 462.2 268.9 L 462.2 277.59999999999997 L 436.09999999999997 277.59999999999997 L 436.09999999999997 294.4 L 461.79999999999995 294.4 L 461.79999999999995 302.2 L 436.09999999999997 302.2 L 436.09999999999997 326 L 462.2 326 L 462.2 334.7 C 462.2 334.7 427.5 334.7 427.5 334.7 z M 401.7 334.7 L 393.3 293.4 L 373 337.2 L 352.5 294.8 L 343.8 334.7 L 335 334.7 L 349.2 266.79999999999995 L 373.09999999999997 317.49999999999994 L 396.59999999999997 266.69999999999993 L 410.79999999999995 334.69999999999993 L 401.7 334.7 L 401.7 334.7 z M 237.3 287.7 L 237.3 334.7 L 228.3 334.7 L 228.3 266.7 L 278 315.4 L 278 268.9 L 286.9 268.9 L 286.9 336.59999999999997 L 237.3 287.7 L 237.3 287.7 z M 203.6 334.7 L 195.6 317.7 L 167.1 317.7 L 159.6 334.7 L 150 334.7 L 180.8 266.29999999999995 L 213.3 334.69999999999993 L 203.6 334.69999999999993 z M 180.8 286.7 L 170.4 310.4 L 192.20000000000002 310.4 C 192.1 310.4 180.8 286.7 180.8 286.7 z M 127.3 334.7 L 107 306.5 L 104.1 306.5 L 104.1 334.7 L 94.8 334.7 L 94.8 268.9 L 109.3 268.9 C 120.6 268.9 132.1 272.2 132.6 286.79999999999995 C 132.79999999999998 296.4 126.8 303.09999999999997 116.89999999999999 305.99999999999994 L 138 334.69999999999993 L 127.3 334.69999999999993 L 127.3 334.7 z M 108.7 276.5 L 104.10000000000001 276.5 L 104.10000000000001 299.2 L 107.60000000000001 299.2 C 115.4 299.2 123.80000000000001 295.4 123.4 287.09999999999997 C 123.1 278.3 115.8 276.5 108.7 276.5 z" stroke-linecap="round" />
</g>
		<g transform="matrix(1 0 0 1 281.4 -67.4)"  >
<path style="stroke: none; stroke-width: 1; stroke-dasharray: none; stroke-linecap: butt; stroke-dashoffset: 0; stroke-linejoin: miter; stroke-miterlimit: 4; fill: rgb(191,49,26); fill-rule: nonzero; opacity: 1;" vector-effect="non-scaling-stroke"  transform=" translate(-595.65, -241.95)" d="M 592.7 238.7 C 590.7 239.5 581.5 241 581.5 249.29999999999998 L 581.5 261.59999999999997 C 581.5 257.4 584.5 253.09999999999997 588.1 252.39999999999998 L 598.5 249.89999999999998 C 602.1 248.89999999999998 609.8 246.39999999999998 609.8 239.79999999999998 L 609.8 222.29999999999998 C 609.5999999999999 230.6 605.5 233.6 602.9 235.2 C 599.3 237.5 595.4 237.7 592.7 238.7" stroke-linecap="round" />
</g>
</g>
</g>
</svg>

<?xml version="1.0" encoding="utf-8"?>
<!-- Generator: Adobe Illustrator 19.2.1, SVG Export Plug-In . SVG Version: 6.00 Build 0)  -->
<svg version="1.1" id="layer" xmlns="http://www.w3.org/2000/svg" xmlns:xlink="http://www.w3.org/1999/xlink" x="0px" y="0px"
	 viewBox="0 0 652 652" style="enable-background:new 0 0 652 652;" xml:space="preserve">
<style type="text/css">
	.st0{fill:#1D1C1B;}
	.st1{fill:#BF311A;}
</style>
<g transform="translate(6 13)">
	<path class="st0" d="M303.3,395.7l-3.6-4.4l-1.8,1.3c-2.9,2.3-5.4,3.8-8.9,3.7c-5-0.2-9.2-3.8-9.3-9c-0.1-3.9,2.3-7,5.9-9.4
		l2.5-1.6l-0.7-1c-1.6-2.1-2.6-3.6-2.6-6.2c0-3.8,3-6.8,7-6.8c4.1,0,7,2.9,7.2,6.6c0.1,2.8-1.6,4.7-3.9,6.6l-1.9,1.4l6.8,8.9
		l3.8-4.2l2.5,2.2l-4,4.8l5.5,7.2H303.3z M290.1,378.8l-2.7,1.8c-2.5,1.7-4.2,4.4-4.1,6.5c0.2,2.9,1.8,5,4.6,5.8
		c1.8,0.5,4.6-0.3,6.7-2l3-2.4L290.1,378.8L290.1,378.8z M291.9,365.4c-1.9,0-3.3,1.6-3.4,3.6c-0.1,1.2,0.3,2,1.1,3l1.6,2.3l2.3-1.7
		c1.5-1.1,2.4-2.4,2.2-4.2C295.3,366.3,293.7,365.3,291.9,365.4z M81.9,396.4c-9.4-0.1-17-7.7-17.1-17.1c0-9.4,7.7-17.1,17.1-17.1
		S99,369.9,99,379.3C98.9,388.8,91.3,396.4,81.9,396.4L81.9,396.4z M81.5,365.8C74,365.9,68,372.1,68,379.5s6.2,13.5,13.7,13.4
		c7.6-0.1,13.6-6.2,13.6-13.8c0,0,0,0,0,0c-0.1-7.4-6.1-13.4-13.6-13.4C81.7,365.8,81.6,365.8,81.5,365.8z M42.5,395.7v-16H25.8v16
		h-3.8v-32.9h3.6v13.5h16.8v-13.5h3.8v32.9H42.5L42.5,395.7z M227.6,396.3c-4.8,0-8.6-3-9.9-7.6l-0.2-1l3.3-1l0.4,1.1
		c1.1,3,3.2,5,6.2,5c3.5,0,6.7-2.8,6.7-6.3c0-2.5-1.2-4.4-3.4-5.5l-5.2-2.4c-3.6-1.7-6.3-4.1-6.3-8.1c0-4.7,4.2-8.3,9-8.4
		c3.6-0.1,6.1,1.6,8.2,4.6l0.4,0.5l-2.9,1.8l-0.8-1.1c-1.2-1.7-2.8-2.6-5-2.4c-2.8,0.1-5.4,2.2-5.4,4.9c0.1,2.3,1.6,3.7,3.7,4.7
		l5.5,2.5c3.6,1.6,5.7,4.2,5.9,8.1c0.1,5.6-4.3,10.4-10,10.5C227.8,396.3,227.7,396.3,227.6,396.3L227.6,396.3z M187.4,395.7v-32.9
		h3.7v29.4h8.9v3.4C200,395.7,187.4,395.7,187.4,395.7z M477.8,396.4c-9.4-0.1-17-7.7-17-17.1c0-9.4,7.7-17.1,17.1-17.1
		c9.4,0,17.1,7.7,17.1,17.1C494.9,388.8,487.2,396.4,477.8,396.4z M477.5,365.8c-7.5,0.1-13.5,6.2-13.4,13.7
		c0.1,7.5,6.2,13.5,13.7,13.4c7.5,0,13.6-6.2,13.6-13.7c0,0,0-0.1,0-0.1c-0.1-7.4-6.1-13.4-13.6-13.4
		C477.7,365.8,477.6,365.8,477.5,365.8z M431.9,396.3c-4.8,0-8.6-3-9.9-7.6l-0.2-1l3.3-1l0.4,1.1c1,3,3.1,5,6.2,5
		c3.6,0,6.7-2.8,6.7-6.3c0-2.5-1.2-4.4-3.4-5.5l-5.2-2.4c-3.6-1.7-6.3-4.1-6.3-8.1c0-4.7,4.2-8.3,9-8.4c3.6-0.1,6.1,1.6,8.2,4.6
		l0.4,0.5l-2.9,1.8l-0.8-1.1c-1.3-1.7-2.9-2.6-5-2.4c-2.8,0.1-5.4,2.2-5.4,4.9c0.1,2.3,1.6,3.7,3.7,4.7l5.5,2.5
		c3.6,1.6,5.7,4.2,5.9,8.1c0.1,5.6-4.3,10.4-10,10.5C432.2,396.3,432.1,396.3,431.9,396.3L431.9,396.3z M391.3,366.3v9.7h12.8v3.2
		h-13v13h13.3v3.4h-17v-32.9h17.1v3.4H391.3L391.3,366.3z M594.2,396.3c-4.8,0-8.7-3-9.9-7.6l-0.2-1l3.3-1l0.4,1.1
		c1.1,3,3.1,5,6.2,5c3.6,0,6.7-2.8,6.7-6.3c0-2.5-1.2-4.4-3.4-5.5l-5.2-2.4c-3.6-1.7-6.2-4.1-6.2-8.1c-0.1-4.7,4.1-8.3,8.9-8.4
		c3.6-0.1,6.1,1.6,8.2,4.6l0.4,0.5l-2.9,1.8l-0.8-1.1c-1.1-1.7-3-2.6-5-2.4c-2.8,0.1-5.4,2.2-5.3,4.9c0.1,2.3,1.6,3.7,3.7,4.7
		l5.5,2.5c3.6,1.6,5.7,4.2,5.9,8.1c0.1,5.6-4.3,10.4-10,10.5C594.4,396.3,594.3,396.3,594.2,396.3z M557.9,366.3v29.4h-3.7v-29.4
		h-7.8v-3.4H566v3.4H557.9L557.9,366.3z M527.9,395.7l-10-14.5h-1.1v14.5h-3.6v-32.9h6.2c5.7,0,10.8,2.4,10.7,9.2
		c-0.2,5.8-3.7,8.5-8.3,8.9l10.4,14.8C532.3,395.7,527.9,395.7,527.9,395.7z M519.8,366.3H517v11.8h2.3c3.6,0,7.2-2,7.2-6.1
		C526.5,367.3,523.3,366.3,519.8,366.3z M364,395.7l-10-14.5h-1.1v14.5h-3.6v-32.9h6.3c5.7,0,10.8,2.4,10.7,9.2
		c-0.2,5.8-3.7,8.5-8.3,8.9l10.4,14.8C368.4,395.7,364,395.7,364,395.7z M356,366.3h-2.9v11.8h2.3c3.6,0,7.2-2,7.2-6.1
		C362.6,367.3,359.5,366.3,356,366.3z M155.9,366.3v9.7h12.8v3.2h-12.9v13h13.3v3.4h-17v-32.9h17.1v3.4
		C169.2,366.3,155.9,366.3,155.9,366.3z M124.8,366.3v29.4h-3.7v-29.4h-7.8v-3.4h19.4v3.4H124.8L124.8,366.3z M47.4,336.2
		c-18.1,0.3-32.9-15.1-33.2-33.3c-0.2-19,15.1-34.6,34.1-34.8c0.2,0,0.4,0,0.6,0c11.3,0.2,19.1,3.8,26.3,12.5l-6.5,5.8
		c-4.8-6.3-12.2-10-20.1-10c-14.9-0.4-25.9,12.5-25.9,26.9c0,13.5,10.3,24.3,25,24.7c10.9,0.3,21-7.3,21.3-18.5H53.6v-8h25v3.7
		C78.7,322.2,66.6,335.8,47.4,336.2z M604.5,334.7l-7.9-17H568l-7.6,17H551l30.8-68.4l32.5,68.4H604.5L604.5,334.7z M581.7,286.7
		l-10.5,23.7H593C593,310.4,581.7,286.7,581.7,286.7z M526.9,334.7h9v-65.8h-9V334.7z M478.4,334.7v-65.8h8.9V326h20v8.7
		L478.4,334.7L478.4,334.7z M427.5,334.7l-0.2-65.8h34.9v8.7h-26.1v16.8h25.7v7.8h-25.7V326h26.1v8.7
		C462.2,334.7,427.5,334.7,427.5,334.7z M401.7,334.7l-8.4-41.3l-20.3,43.8l-20.5-42.4l-8.7,39.9H335l14.2-67.9l23.9,50.7l23.5-50.8
		l14.2,68L401.7,334.7L401.7,334.7z M237.3,287.7v47h-9v-68l49.7,48.7v-46.5h8.9v67.7L237.3,287.7L237.3,287.7z M203.6,334.7l-8-17
		h-28.5l-7.5,17H150l30.8-68.4l32.5,68.4H203.6z M180.8,286.7l-10.4,23.7h21.8C192.1,310.4,180.8,286.7,180.8,286.7z M127.3,334.7
		L107,306.5h-2.9v28.2h-9.3v-65.8h14.5c11.3,0,22.8,3.3,23.3,17.9c0.2,9.6-5.8,16.3-15.7,19.2l21.1,28.7H127.3L127.3,334.7z
		 M108.7,276.5h-4.6v22.7h3.5c7.8,0,16.2-3.8,15.8-12.1C123.1,278.3,115.8,276.5,108.7,276.5z"/>
	<path class="st1" d="M592.7,238.7c-2,0.8-11.2,2.3-11.2,10.6v12.3c0-4.2,3-8.5,6.6-9.2l10.4-2.5c3.6-1,11.3-3.5,11.3-10.1v-17.5
		c-0.2,8.3-4.3,11.3-6.9,12.9C599.3,237.5,595.4,237.7,592.7,238.7"/>
</g>
</svg>
